packages/tokens/icons/thumbsDown/size32Px.svg

<svg viewBox="0 0 32 32" fill="none" xmlns="http://www.w3.org/2000/svg" width="1em" height="1em"><path d="M4.5 21C4.5 21.2761 4.72386 21.5 5 21.5H9C9.82843 21.5 10.5 20.8284 10.5 20L10.5 10C10.5 9.17157 9.82843 8.5 9 8.5H5C4.72386 8.5 4.5 8.72386 4.5 9L4.5 21Z" stroke="currentColor"/><circle cx="0.5" cy="0.5" r="0.25" transform="matrix(1 0 0 -1 8 11)" stroke="currentColor" stroke-width="0.5"/><path d="M22 8.5L15.7935 8.5C15.5989 8.5 15.4053 8.52842 15.2188 8.58435L10.5 10" stroke="currentColor"/><path d="M19.4999 20.9995C19.2238 20.9995 18.9999 20.7757 18.9999 20.4995C18.9999 20.2234 19.2238 19.9995 19.4999 19.9995V20.9995ZM19.4999 19.9995H25.9999V20.9995H19.4999V19.9995ZM25.9999 17.9995H22.9999V16.9995H25.9999V17.9995ZM26.9999 18.9995C26.9999 18.4472 26.5522 17.9995 25.9999 17.9995V16.9995C27.1045 16.9995 27.9999 17.8949 27.9999 18.9995H26.9999ZM25.9999 19.9995C26.5522 19.9995 26.9999 19.5518 26.9999 18.9995H27.9999C27.9999 20.1041 27.1045 20.9995 25.9999 20.9995V19.9995Z" fill="currentColor"/><path d="M20.4999 17.4995H25.4999C26.3284 17.4995 26.9999 16.8279 26.9999 15.9995V15.9995C26.9999 15.1711 26.3284 14.4995 25.4999 14.4995H20.4999" stroke="currentColor" stroke-linecap="round"/><path d="M20.9999 14.4995H24.9999C25.8284 14.4995 26.4999 13.8279 26.4999 12.9995V12.9995C26.4999 12.1711 25.8284 11.4995 24.9999 11.4995H20.4999" stroke="currentColor" stroke-linecap="round"/><path d="M20.4999 11.4995H23.4999C24.3284 11.4995 24.9999 10.8279 24.9999 9.99951V9.99951C24.9999 9.17108 24.3284 8.49951 23.4999 8.49951H19.4999" stroke="currentColor" stroke-linecap="round"/><path d="M19.5 20.4991L20.3802 22.2595C20.4597 22.4186 20.518 22.5864 20.5433 22.7624C20.6392 23.431 20.8019 25.1981 20 26C19.5366 26.4634 18.9658 26.4973 18.4866 26.4003C17.8312 26.2675 17.4999 25.5983 17.4999 24.9296L17.4999 24.1765C17.4999 23.4503 17.1062 22.7811 16.4714 22.4283L13.2266 20.6251C13.078 20.5425 12.9108 20.4992 12.7408 20.4992L10 20.4992" stroke="currentColor"/></svg>

<svg xmlns="http://www.w3.org/2000/svg" fill="none" viewBox="0 0 32 32" width="1em" height="1em"><path stroke="currentColor" d="M4.5 21a.5.5 0 0 0 .5.5h4a1.5 1.5 0 0 0 1.5-1.5V10A1.5 1.5 0 0 0 9 8.5H5a.5.5 0 0 0-.5.5v12Z"/><circle cx=".5" cy=".5" r=".25" stroke="currentColor" stroke-width=".5" transform="matrix(1 0 0 -1 8 11)"/><path stroke="currentColor" d="M22 8.5h-6.207a2 2 0 0 0-.574.084L10.5 10"/><path fill="currentColor" d="M19.5 21a.5.5 0 1 1 0-1v1Zm0-1H26v1h-6.5v-1Zm6.5-2h-3v-1h3v1Zm1 1a1 1 0 0 0-1-1v-1a2 2 0 0 1 2 2h-1Zm-1 1a1 1 0 0 0 1-1h1a2 2 0 0 1-2 2v-1Z"/><path stroke="currentColor" stroke-linecap="round" d="M20.5 17.5h5A1.5 1.5 0 0 0 27 16v0a1.5 1.5 0 0 0-1.5-1.5h-5m.5 0h4a1.5 1.5 0 0 0 1.5-1.5v0a1.5 1.5 0 0 0-1.5-1.5h-4.5m0 0h3A1.5 1.5 0 0 0 25 10v0a1.5 1.5 0 0 0-1.5-1.5h-4"/><path stroke="currentColor" d="m19.5 20.5.88 1.76c.08.159.138.326.163.502.096.669.259 2.436-.543 3.238-.463.463-1.034.497-1.513.4-.656-.133-.987-.802-.987-1.47v-.753a2 2 0 0 0-1.029-1.749l-3.244-1.803a1 1 0 0 0-.486-.126H10"/></svg>
